X:1
T:Title
%%score 1 2
L:1/8
Q:1/4=80
M:6/8
K:C
V:1 treble nm="Drawbar Organ, Soprano"
V:2 bass nm="Choir Pad, St. Euphrasia, Graley"
V:1
 [CE]/[DF]<[EG][FA]/ [EG][Ge]>[Fd] | [Ec][Ac][GB] [FA] [EG]2 | [EG][EG]>[FA] [EG][DF][EG] | %3
w: By~Alfred~Arthur~Graley,~1869 * * * * * *|||
 [DF] [CE]2- [CE]2- [CE]/ z/ | [CE]/[DF]<[EG][FA]/ [EG][Ge]>[Fd] | [Ec][Ac][GB] [FA] [EG]2 | %6
w: |||
 [EG][EG]>[FA] [EG][EG][FA] | [DB] [Ec]2- [Ec]2- [Ec]/ z/ | [EG][EG][CE] [EG] [Ec]2 | %9
w: |||
 [CE]/[CE]/[B,G][B,D] [DF] [CE]2 | [EG][Ec][EG] [CE][CE][CE] | [C^F] [B,G]2- [B,G]2- [B,G]/ z/ | %12
w: |||
 [CE]/[DF]<[EG][FA]/ [EG][Ge]>[Fd] | [Ec][Ac][GB] [FA] [EG]2 | [EG][EG]>[FA] [EG][EG][FA] | %15
w: |||
 [DB] [Ec]2- [Ec]3- | [Ec]3 z3 |] %17
w: ||
V:2
 C,C,>C, C,C,>C, | C,F,F, F, C,2 | C,G,>G, G,G,,G,, | G,, C,2- C,2- C,/ z/ | C,C,>C, C,C,>C, | %5
 C,F,F, F, C,2 | C,G,>G, G,G,,G,, | G,, C,2- C,2- C,/ z/ | C,C,C, C, C,2 | C,/C,/G,,G,, G,, C,2 | %10
 C,C,C, C,A,,A,, | D, G,,2- G,,2- G,,/ z/ | C,C,>C, C,C,>C, | C,F,F, F, C,2 | C,G,>G, G,G,,G,, | %15
 G,, C,2- C,3- | C,3 z3 |] %17

